svgs/1F973.svg

<svg xmlns="http://www.w3.org/2000/svg" xmlns:xlink="http://www.w3.org/1999/xlink" preserveAspectRatio="none" viewBox="0 0 72 72"><defs><path id="a" fill="#FCC21B" d="M127.55 92.35q0-27-8.5-47.05-15.6-36.65-55.3-36.65Q24.1 8.65 8.5 45.3 0 65.35 0 92.35q0 10.4 18.7 17.7 18.65 7.35 45.05 7.35 26.45 0 45.1-7.35 18.7-7.3 18.7-17.7z"/><path id="b" fill="#2F2F2F" d="M101.1 49q-.25-1.1-1.25-1.7-.95-.55-2.05-.25-1.1.25-1.65 1.2-.85 1.35-2.45 2.55-3.1 2.4-7.25 2.4-4.1 0-7.25-2.4-2.35-2.45-2.45-2.55-.8-1.35-2.3-1.35-.7 0-1.4.4-.95.55-1.25 1.65-.3 1.15.25 2.1.1.15 3.6 3.9 4.7 3.7 10.8 3.7 6.15 0 10.8-3.7 2.35-1.85 3.6-3.9.55-.95.25-2.05z"/><path id="c" fill="#2F2F2F" d="M56.15 48.95q-.25-1.1-1.25-1.65-1-.55-2.05-.3-1.1.3-1.65 1.25-.75 1.25-2.35 2.5-3.15 2.45-7.35 2.45-4.15 0-7.25-2.4-2.35-2.45-2.4-2.55-.85-1.35-2.4-1.35-.65 0-1.35.4-.95.55-1.25 1.65-.3 1.15.25 2.1.1.15 3.6 3.9 4.65 3.7 10.8 3.7 6.1 0 10.8-3.7 2.35-1.85 3.55-3.9.6-.95.3-2.1z"/><g id="d"><path fill="#7E57C2" d="M44.7 51.45l.05-2.5-6.2-.35.25 2.9 5.9-.05z"/><path fill="#90CAF9" d="M56.85 41.15q.55-1.15 1.95-1.6 1.3-.3 2.5.25 1.6.85 2.2 2.6.4 1.85-.4 3.4-1.8 3.35-6.25 3.45-2.1 0-12.1-.3l-.05 2.5 12.1-.1q5.75 0 8.15-4.55 1.3-2.4.55-4.95-.8-2.6-3.2-3.85-1.95-1.1-4.1-.5-2.1.65-3.25 2.65-.85 1.7-.3 3.45.55 1.85 2.2 2.8 1.35.65 2.85.25 1.6-.25 2.35-1.75.45-.65.35-1.6 0-.9-.4-1.8-.85-1.4-2.4-1.55-.4-.05-.75.25t-.35.8q-.1.4.2.8.3.25.7.3.45 0 .75.45.15.4.15.75 0 .3-.1.6-.35.6-.95.7-.75.2-1.45-.15-.85-.5-1.1-1.45-.35-.9.15-1.85z"/></g><g id="e"><path fill="#90CAF9" d="M12.8 4.8q-1.25 8.65-5.2 14.8.15 7.45.75 14.15 3.85-.35 7.3-1.3 4.6-10.15 6.45-19.8-4.4-3.9-9.3-7.85m18.75 16.5q-.25 1.45-.6 2.85l1.7-1.7q-.55-.6-1.1-1.15z"/><path fill="#F44336" d="M30.95 24.15q.35-1.4.6-2.85-4.5-4.3-9.45-8.65-1.85 9.65-6.45 19.8 8.8-2.4 15.3-8.3M7.75.8q-.35 9.95-.15 18.8 3.95-6.15 5.2-14.8-2.45-1.95-5.05-4z"/></g><path id="f" fill="#2F2F2F" d="M63.9 64.6q-1.6.4-2.65 1.1-1.35.85-1.2 1.8.15.9 1.6 1.2.8.15 2.5.15 3.85 0 5.05 1.1.7.5.75 1.9.05.85-.7 1.8-1.05 1.35-3.2 1.85-1.1.3-1.75 1-.75.85-.45 1.85.4 1.25 1.8 1.5l.6.15q4.25.85 4.85 2.9.15.45 0 1.2-.2.7-.45 1-1.15 1.4-2.85 2.15-1.4.6-3.7.95-4.05.5-4 2.05.05 1 1.5 1.6 1.2.45 2.6.45 7.3 0 10.6-3.9 2.2-2.65 1.6-6.3-.45-2.7-3.85-4.8 2.8-2.7 2.7-5.55-.05-3.5-2.8-5.75-1.45-1.2-4.05-1.6-2.4-.3-4.5.2z"/><g id="g"><path fill="#00E676" d="M30.6 11.8l.7-4.05q-5.95.15-11.3-2.6l-.85 3.9Q24.4 11.7 30.6 11.8m26.25 19.75l-.9 3.7Q61.25 38 67.35 38l.9-3.95q-6.1.1-11.4-2.5z"/><path fill="#F44336" d="M58.25 10.95q-5.05 3.7-11.2 4.65l1.6 3.8q6.25-1 11.2-4.65l-1.6-3.8M67.8 57.5q-5 3.65-11.2 4.7l1.6 3.8q6.25-1 11.2-4.65l-1.6-3.85M4.35 38.55L2.2 42.2q4.75 4.55 10.9 6.35l2.25-3.75q-6.3-1.7-11-6.25z"/><path fill="#90CAF9" d="M8.1 62l1.1 4.1q6.4-.1 12-3.2l-1.05-4.05Q14.6 61.85 8.1 62z"/></g></defs><use transform="matrix(.54488 0 0 .54488 1.25 7.7)" xlink:href="#a"/><use transform="matrix(.54488 0 0 -.54488 1.25 65.2)" xlink:href="#b"/><use transform="matrix(.54488 0 0 -.54488 1.25 65.2)" xlink:href="#c"/><use xlink:href="#d"/><use xlink:href="#e"/><g><use transform="matrix(.54488 0 0 .54488 1.25 7.7)" xlink:href="#f"/></g><g><use xlink:href="#g"/></g></svg>

<svg xmlns="http://www.w3.org/2000/svg" version="1.1" xmlns:xlink="http://www.w3.org/1999/xlink" preserveAspectRatio="none" x="0px" y="0px" width="72px" height="72px" viewBox="0 0 72 72">
<defs>
<g id="Layer4_0_FILL">
<path fill="#FCC21B" stroke="none" d="
M 127.55 92.35
Q 127.55 65.35 119.05 45.3 103.45 8.65 63.75 8.65 24.1 8.65 8.5 45.3 0 65.35 0 92.35 0 102.75 18.7 110.05 37.35 117.4 63.75 117.4 90.2 117.4 108.85 110.05 127.55 102.75 127.55 92.35 Z"/>
</g>

<g id="Layer4_1_FILL">
<path fill="#2F2F2F" stroke="none" d="
M 101.1 49
Q 100.85 47.9 99.85 47.3 98.9 46.75 97.8 47.05 96.7 47.3 96.15 48.25 95.3 49.6 93.7 50.8 90.6 53.2 86.45 53.2 82.35 53.2 79.2 50.8 76.85 48.35 76.75 48.25 75.95 46.9 74.45 46.9 73.75 46.9 73.05 47.3 72.1 47.85 71.8 48.95 71.5 50.1 72.05 51.05 72.15 51.2 75.65 54.95 80.35 58.65 86.45 58.65 92.6 58.65 97.25 54.95 99.6 53.1 100.85 51.05 101.4 50.1 101.1 49 Z"/>
</g>

<g id="Layer4_2_FILL">
<path fill="#2F2F2F" stroke="none" d="
M 56.15 48.95
Q 55.9 47.85 54.9 47.3 53.9 46.75 52.85 47 51.75 47.3 51.2 48.25 50.45 49.5 48.85 50.75 45.7 53.2 41.5 53.2 37.35 53.2 34.25 50.8 31.9 48.35 31.85 48.25 31 46.9 29.45 46.9 28.8 46.9 28.1 47.3 27.15 47.85 26.85 48.95 26.55 50.1 27.1 51.05 27.2 51.2 30.7 54.95 35.35 58.65 41.5 58.65 47.6 58.65 52.3 54.95 54.65 53.1 55.85 51.05 56.45 50.1 56.15 48.95 Z"/>
</g>

<g id="Layer3_0_FILL">
<path fill="#7E57C2" stroke="none" d="
M 44.7 51.45
L 44.75 48.95 38.55 48.6 38.8 51.5 44.7 51.45 Z"/>

<path fill="#90CAF9" stroke="none" d="
M 56.85 41.15
Q 57.4 40 58.8 39.55 60.1 39.25 61.3 39.8 62.9 40.65 63.5 42.4 63.9 44.25 63.1 45.8 61.3 49.15 56.85 49.25 54.75 49.25 44.75 48.95
L 44.7 51.45 56.8 51.35
Q 62.55 51.35 64.95 46.8 66.25 44.4 65.5 41.85 64.7 39.25 62.3 38 60.35 36.9 58.2 37.5 56.1 38.15 54.95 40.15 54.1 41.85 54.65 43.6 55.2 45.45 56.85 46.4 58.2 47.05 59.7 46.65 61.3 46.4 62.05 44.9 62.5 44.25 62.4 43.3 62.4 42.4 62 41.5 61.15 40.1 59.6 39.95 59.2 39.9 58.85 40.2 58.5 40.5 58.5 41 58.4 41.4 58.7 41.8 59 42.05 59.4 42.1 59.85 42.1 60.15 42.55 60.3 42.95 60.3 43.3 60.3 43.6 60.2 43.9 59.85 44.5 59.25 44.6 58.5 44.8 57.8 44.45 56.95 43.95 56.7 43 56.35 42.1 56.85 41.15 Z"/>
</g>

<g id="Layer2_0_FILL">
<path fill="#90CAF9" stroke="none" d="
M 12.8 4.8
Q 11.55 13.45 7.6 19.6 7.75 27.05 8.35 33.75 12.2 33.4 15.65 32.45 20.25 22.3 22.1 12.65 17.7 8.75 12.8 4.8
M 31.55 21.3
Q 31.3 22.75 30.95 24.15 31.8 23.3 32.65 22.45 32.1 21.85 31.55 21.3 Z"/>

<path fill="#F44336" stroke="none" d="
M 30.95 24.15
Q 31.3 22.75 31.55 21.3 27.05 17 22.1 12.65 20.25 22.3 15.65 32.45 24.45 30.05 30.95 24.15
M 7.75 0.8
Q 7.4 10.75 7.6 19.6 11.55 13.45 12.8 4.8 10.35 2.85 7.75 0.8 Z"/>
</g>

<g id="Layer1_0_FILL">
<path fill="#2F2F2F" stroke="none" d="
M 63.9 64.6
Q 62.3 65 61.25 65.7 59.9 66.55 60.05 67.5 60.2 68.4 61.65 68.7 62.45 68.85 64.15 68.85 68 68.85 69.2 69.95 69.9 70.45 69.95 71.85 70 72.7 69.25 73.65 68.2 75 66.05 75.5 64.95 75.8 64.3 76.5 63.55 77.35 63.85 78.35 64.25 79.6 65.65 79.85
L 66.25 80
Q 70.5 80.85 71.1 82.9 71.25 83.35 71.1 84.1 70.9 84.8 70.65 85.1 69.5 86.5 67.8 87.25 66.4 87.85 64.1 88.2 60.05 88.7 60.1 90.25 60.15 91.25 61.6 91.85 62.8 92.3 64.2 92.3 71.5 92.3 74.8 88.4 77 85.75 76.4 82.1 75.95 79.4 72.55 77.3 75.35 74.6 75.25 71.75 75.2 68.25 72.45 66 71 64.8 68.4 64.4 66 64.1 63.9 64.6 Z"/>
</g>

<g id="Layer0_0_FILL">
<path fill="#00E676" stroke="none" d="
M 30.6 11.8
L 31.3 7.75
Q 25.35 7.9 20 5.15
L 19.15 9.05
Q 24.4 11.7 30.6 11.8
M 56.85 31.55
L 55.95 35.25
Q 61.25 38 67.35 38
L 68.25 34.05
Q 62.15 34.15 56.85 31.55 Z"/>

<path fill="#F44336" stroke="none" d="
M 58.25 10.95
Q 53.2 14.65 47.05 15.6
L 48.65 19.4
Q 54.9 18.4 59.85 14.75
L 58.25 10.95
M 67.8 57.5
Q 62.8 61.15 56.6 62.2
L 58.2 66
Q 64.45 65 69.4 61.35
L 67.8 57.5
M 4.35 38.55
L 2.2 42.2
Q 6.95 46.75 13.1 48.55
L 15.35 44.8
Q 9.05 43.1 4.35 38.55 Z"/>

<path fill="#90CAF9" stroke="none" d="
M 8.1 62
L 9.2 66.1
Q 15.6 66 21.2 62.9
L 20.15 58.85
Q 14.6 61.85 8.1 62 Z"/>
</g>
</defs>

<g id="Layer_1">
<g transform="matrix( 0.5448760986328125, 0, 0, 0.5448760986328125, 1.25,7.7) ">
<use xlink:href="#Layer4_0_FILL"/>
</g>

<g transform="matrix( 0.5448760986328125, 0, 0, -0.5448760986328125, 1.25,65.2) ">
<use xlink:href="#Layer4_1_FILL"/>
</g>

<g transform="matrix( 0.5448760986328125, 0, 0, -0.5448760986328125, 1.25,65.2) ">
<use xlink:href="#Layer4_2_FILL"/>
</g>
</g>

<g id="Camada_3">
<g transform="matrix( 1, 0, 0, 1, 0,0) ">
<use xlink:href="#Layer3_0_FILL"/>
</g>
</g>

<g id="Camada_4">
<g transform="matrix( 1, 0, 0, 1, 0,0) ">
<use xlink:href="#Layer2_0_FILL"/>
</g>
</g>

<g id="Camada_2">
<g transform="matrix( 0.5448760986328125, 0, 0, 0.5448760986328125, 1.25,7.7) ">
<use xlink:href="#Layer1_0_FILL"/>
</g>
</g>

<g id="Camada_5">
<g transform="matrix( 1, 0, 0, 1, 0,0) ">
<use xlink:href="#Layer0_0_FILL"/>
</g>
</g>
</svg>
